X:1
T:A whole new world
T:A whole new world
T:form "Aladdin"
%%score 1 2 3
L:1/8
M:4/4
K:D
V:1 treble nm="Violín" snm="Vln."
V:2 bass nm="Violonchelo" snm="Vc."
V:3 bass transpose=-12 nm="Contrabajo" snm="Cb."
V:1
 z8 | z2 z!mf! a f'ae'g | d'f z2 z4 | z8 |!mf! f2 eg- gf d2 | A6 z2 | f2 eg- gf d2 | f4 e4 | %8
 e2 ^df- fe c2 | e2 d2 c2 d2 | B2 ce- e2 d2 | A3 A fAeG | dF z2 z!mp! fdA | z2 z2 z fdA | %14
 z2 z2 z fdA | z G g2 z A a2 | z Bge- eFfF | z F B2 z F A2 | z2 AB- BGeG | f2 z2 z4 | %20
!f! c'3 d' e'2 a2 | a8- | a3 g- g4 | f8 | a2 g2 f4 | a2 g2 f4 | z8 | %27
"_cresc." e/d/c/d/ e/f/g/a/ b/a/g/a/ b/c'/d'/e'/ | a8- | a3 f g2 b2 | a2 eg- g2 f2 | f4 a4 | %32
 e4 e2 d2 | a2 g2 f4 | f2 e2 d2 e2 |"_dim.""_dim." g2 f2 d2 c2 | %36
 d2!mp! E/D/C/B,/ F/G/A/B/ c/B/A/G/ | F/E/F/G/ A/B/c/d/ e/f/!<(!!<(!g/a/ b/g/a/_b/!<)!!<)! || %38
[K:F]!mf! .a.a.g.b z .a.f.b | .a.a.a.g z .a.f.a | .a.a.g.b z .a.f.a | b4 c'4 |!mp! d6 ^c2 | %43
 g2 f2 e2 f2 | d2 eg- g2 f2 | a4 b2 d'2!f! | c'8- | c'3 a b2 d'2 | c'2 gb- b2 a2 | %49
 a4!f! (3a2 b2 c'2 | e'2 d'2 c'3 f | e'2 d'c'- c'3 f | a2 g2 f2 g2 | b2 z a b2 d'2 | %54
 c'4- c'/c/d/e/ f/g/a/b/ | c'3 c d2 f2 | e2 ce- e2 e2 | d4 (3:2:2f2 g- (3:2:2g a2 | c'2 b2 a3 f | %59
 c'2 d'2 a4 |!mf! c6 =B2 | _B8 |"_dim." F8- | F2 z2 z4 |!p! c'8- | c'4 f'4 | c'8- | c'4 f4 | c'8- | %69
 c'2 z c c'2 !tenuto!b!tenuto!a | a2 gb- ba f2 | c8 |!mp! c'2 bd'- d'c' a2 | %73
"_dim." Fcf"^dim."g ac'f'g' |!p!!p! !fermata!a'8 |] %75
V:2
 z8 | z8 | z8 |!mf!!mf! A,4 G,2 F,2 | F,8 |!mf! F,2 E,G,- G,F, D,2 | A,,6 z2 | B,4 C4 | %8
 z B,GE- EF,FF, | z F, D2 z F, D2 | z2 A,B,- B,G,EG, | F3 z z4 |!mf! D2 CE- ED A,2 | F,6 z2 | %14
!mf! F,2 E,G,- G,F, D2 | D4 C4 |!mf! E2 ^DF- FE C2 | E2 D2 C2 D2 | B,2 CE- E2 D2 | %19
 F2 z!f! F, G,2 B,2 | A,8- | A,2 z F, G,2 B,2 | A,2 E,G,- G,2 F,2 | F,4 (3F,2 G,2 A,2 | %24
 C2 B,2 A,2 z D, | C2 D2 A,4 | F2 E2 D2 B,2 | E2 z!f! F, G,2 B,2 | A,8- | A,3 F, G,2 B,2 | %30
 A,2 E,G,- G,2 F,2 | F,4!f! (3!tenuto!F,2 !tenuto!G,2 !tenuto!A,2 | C2 B,2 A,4 | C2 D2 A,4 | %34
 A,6 ^G,2 |"_dim." G,8 | F,6 z2 | z4 z2 D,/E,/^E,/G,/ ||[K:F]!ff!!ff! A,2 G,B,- B,A, F,2 | C,8 | %40
 A,2 G,B,- B,A, F,2 | A,4 G,4 |!f! G,2 _G,A,- A,=G, E,2 | G,2 F,2 E,2 F,2 | D,2 E,G,- G,2 F,2 | %45
 A,2 z C, D,2 F,2 | G,3 A, B,2 G,2 | A,4 F,4 | E,3 F, G,2 E,2 | F,4 (3A,2 B,2 C2 | %50
 E,F,,D,F,, C,F,,C,F,, | E,F,,D,F,, C,F,,C,F,, | A,D,G,D, F,G,,G,G,, | F,2 D,2 B,,2 G,,2 | %54
!f! E,3 F, G,2 E,2 | A,2 C,F, B,2 A,C, | C3 _D- D4 | F4!mf! C,2 F,2 | DF,DF, CF,CF, | %59
 EF,FF, CF,CF, |!f! A,2 G,2 F,2 G,2 | B,2 A,2 F,2 E,2 |"_dim." F,8- | F,2 z2 z4 | %64
 z2 z!mf! A, B,2 D2 | C8- | C2 z A, B,2 D2 | C8- | C2 z A, B,2 D2 | %69
 C2 z!mp! C A2 !tenuto!G!tenuto!F | F6 z2 |!mp! C2 B,D- DC B,2 | A,2 G,B,- B,A, F,2 | C6 F,G, | %74
!p!!p! !fermata!A,8 |] %75
V:3
 D,A,EF- F4 | D,A,EF- F4 | D,A,EF- F4 | D,A,EF- F4 | D,A,EF- F4 | D,A,EF- F4 | D,A,EF- F4 | %7
 B,4 C4 | G,3 F,- F,2 ^A,2 | B,4 A,4 | G,-D G,2- G,4 | D,A,EF- F4 | D,A,EF- F4 | D,A,EF- F4 | %14
 D,A,EF-!f! F4 | z G, D2 z A, E2 | G,3 F,- F,2 ^A,2 | B,4 A,4 | G,-D G,2- G,4 | D4 [D,D]4 | %20
 [A,,A,]3 [B,,B,] [C,C]2 [A,,A,]2 | [D,D]3 [D,D]- [D,D]4 | [A,,A,]3 [B,,B,] [C,C]2 [A,,A,]2 | %23
 [D,D]4 D,4 | G,4 F,4 | G,4 F,4 | B,4 E,4 | A,8 | [A,,A,]3 [B,,B,] [C,C]2 [A,,A,]2 | %29
 [D,D]3 [D,D]- [D,D]4 | A,3 ^A,- A,4 | B,4 (3[D,D]2 [D,D]2 [D,D]2 | G,4 F,4 | G,4 F,4 | B,4 E,4 | %35
 =C,4 A,4 | [D,D]6 [A,,A,]2 | [D,D]4 [D,D]2 [D,D]2 ||[K:F] F,3 F,- F,2 F,2 | F,3 F,- F,4 | %40
 F,3 F,- F,2 F,2 | F,4 E,4 |!f! D,6 ^C,2 | E,2 D,2 C,4 | B,,3 D,- D,2 B,,2 | F,4 z2!mf! F,2 | %46
 C,3 D, E,2 C,2 | F,3 F, F,4 | C,3 D, E,2 C,2 | F,8 | B,4 A,4 | B,4 A,4 | D4 G,4 | B,4 F,2 G,2 | %54
 C,3 D, E,2 C,2 | F,3 F, F,4 | C,4 ^C,4 | D,4 F2 F,2 | B,, z z2 A,, z z2 | B,, z z2 A,, z z2 | %60
 D,4 G,,4 | _E,4 C4 | D,8- | D,2 z!mf! A, B,2 D2 | C8- | C2 z A, B,2 D2 | C8- | C2 z A, B,2 D2 | %68
 C8 | C2 z!mp! C, C2 !tenuto!B,!tenuto!A, | A,6 z2 |!mp! A,2 G,B,- B,A, F,2 | F,8 | %73
 F,,C,"_dim."F,"^dim."G, A,CFG |!p! !fermata!F,8 |] %75

